dist/assets/img/logo.svg

<svg width="125" height="87" viewBox="0 0 125 87" fill="none" xmlns="http://www.w3.org/2000/svg">
<path d="M12.6006 80.0266H11.7315L9.14675 82.7524V80.0266H8.44141V84.7501H9.14675V83.6079L10.1433 82.584L11.8225 84.7501H12.6552L10.6257 82.0744L12.6006 80.0266Z" fill="#545555"/>
<path d="M15.645 83.9674L13.9249 80.0266H13.1467L15.2946 84.7319C15.0125 85.4008 14.744 85.6193 14.3253 85.6193C14.025 85.6193 13.8157 85.5647 13.5836 85.4464L13.347 86.0061C13.6655 86.1608 13.9613 86.2427 14.3526 86.2427C15.0671 86.2427 15.5221 85.8878 15.9226 84.9094L17.9066 80.0266H17.1603L15.645 83.9674Z" fill="#545555"/>
<path d="M19.0259 84.7501H19.7312V80.65H22.4161V84.7501H23.1214V80.0266H19.0259V84.7501Z" fill="#545555"/>
<path d="M26.7119 83.9674L24.9918 80.0266H24.2136L26.3615 84.7319C26.0794 85.4008 25.8109 85.6193 25.3922 85.6193C25.0919 85.6193 24.8826 85.5647 24.6505 85.4464L24.4138 86.0061C24.7324 86.1608 25.0282 86.2427 25.4195 86.2427C26.134 86.2427 26.589 85.8878 26.9895 84.9094L28.9735 80.0266H28.2227L26.7119 83.9674Z" fill="#545555"/>
<path d="M30.7984 83.7672V80.0266H30.093V84.7501H30.7711L33.5833 81.0141V84.7501H34.2887V80.0266H33.6015L30.7984 83.7672Z" fill="#545555"/>
<path d="M33.456 78.2336L32.9736 78.1335C32.8644 78.5249 32.6187 78.7751 32.1682 78.7751C31.7222 78.7751 31.472 78.5294 31.3627 78.1335L30.8804 78.2336C30.9896 78.8844 31.4856 79.3485 32.1682 79.3485C32.8553 79.3485 33.3468 78.8844 33.456 78.2336Z" fill="#545555"/>
<path d="M41.0326 82.5112L39.2715 80.0266H38.6025V84.7501H39.2897V81.1506L41.0144 83.5442L42.7618 81.1506V84.7501H43.4762V80.0266H42.7982L41.0326 82.5112Z" fill="#545555"/>
<path d="M47.0211 79.9265C45.7151 79.9265 44.7549 81.0232 44.7549 82.3929C44.7549 83.8627 45.8152 84.8593 47.1121 84.8593C48.0086 84.8593 48.5819 84.5044 49.0597 83.972L48.6229 83.5806C48.2406 83.9811 47.781 84.2495 47.1348 84.2495C46.3021 84.2495 45.574 83.6716 45.4693 82.6796H49.2145C49.2236 82.5704 49.2236 82.4976 49.2236 82.4339C49.2236 81.0414 48.4181 79.9265 47.0211 79.9265ZM45.4648 82.1108C45.5649 81.1961 46.1883 80.5226 46.9983 80.5226C47.9312 80.5226 48.4227 81.2552 48.5046 82.1108H45.4648Z" fill="#545555"/>
<path d="M52.8322 80.0812C51.8265 80.0812 51.2031 80.5453 50.8754 81.1051C50.9482 80.1995 51.2759 79.6716 52.2542 79.4214L54.8117 78.7888L54.6752 78.1927L52.0449 78.8161C50.3976 79.2075 50.2793 80.6728 50.2793 82.1972C50.2793 83.8445 51.2395 84.8547 52.6729 84.8547C54.0699 84.8547 55.0938 83.7399 55.0938 82.4247C55.0984 81.1324 54.0654 80.0812 52.8322 80.0812ZM52.6957 84.2313C51.7446 84.2313 51.0028 83.435 51.0028 82.4475C51.0028 81.46 51.6991 80.6637 52.6775 80.6637C53.6285 80.6637 54.3703 81.46 54.3703 82.4475C54.3703 83.435 53.674 84.2313 52.6957 84.2313Z" fill="#545555"/>
<path d="M57.0369 80.4179C57.0369 83.9628 56.5636 84.2131 55.9948 84.2131C55.9129 84.2131 55.7491 84.1767 55.6581 84.1494L55.5762 84.7546C55.7218 84.791 55.9857 84.8274 56.1404 84.8274C57.0369 84.8274 57.7013 84.4452 57.7013 80.7592V80.65H59.6762V84.7546H60.3816V80.0311H57.0369V80.4179Z" fill="#545555"/>
<path d="M62.7254 80.0266H62.02V84.7501H62.7254V80.0266Z" fill="#545555"/>
<path d="M62.7798 78.2155H61.9744V78.9936H62.7798V78.2155Z" fill="#545555"/>
<path d="M67.103 84.7501H67.8038V80.65H70.4932V84.7501H71.194V80.0266H67.103V84.7501Z" fill="#545555"/>
<path d="M75.2804 79.9265C74.4112 79.9265 73.8561 80.4088 73.4693 80.9777V80.0266H72.7639V86.2154H73.4693V83.8491C73.8333 84.377 74.4021 84.8548 75.2804 84.8548C76.4226 84.8548 77.5375 83.9401 77.5375 82.3974C77.5375 80.8229 76.4135 79.9265 75.2804 79.9265ZM75.153 84.2222C74.2747 84.2222 73.4419 83.4896 73.4419 82.3929C73.4419 81.2962 74.2747 80.5545 75.153 80.5545C76.0494 80.5545 76.8185 81.2689 76.8185 82.3838C76.8185 83.5442 76.0676 84.2222 75.153 84.2222Z" fill="#545555"/>
<path d="M81.0096 79.9265C79.5853 79.9265 78.5432 81.0596 78.5432 82.3929C78.5432 83.7444 79.5762 84.8593 80.9914 84.8593C82.4158 84.8593 83.4669 83.7262 83.4669 82.3929C83.4715 81.0414 82.4294 79.9265 81.0096 79.9265ZM81.0096 84.2313C80.0131 84.2313 79.2622 83.4077 79.2622 82.3929C79.2622 81.3781 79.9675 80.5454 80.9914 80.5454C81.988 80.5454 82.748 81.3781 82.748 82.3929C82.748 83.4077 82.0335 84.2313 81.0096 84.2313Z" fill="#545555"/>
<path d="M86.9072 84.2313C85.9197 84.2313 85.1689 83.4168 85.1689 82.3929C85.1689 81.3599 85.9015 80.5454 86.8617 80.5454C87.5033 80.5454 87.9402 80.8457 88.3133 81.2416L88.7593 80.7683C88.3224 80.3042 87.7627 79.9265 86.8662 79.9265C85.4874 79.9265 84.4453 81.0596 84.4453 82.3929C84.4453 83.7353 85.4874 84.8593 86.8662 84.8593C87.7536 84.8593 88.3179 84.4771 88.7957 83.9446L88.3315 83.5169C87.9584 83.9219 87.5124 84.2313 86.9072 84.2313Z" fill="#545555"/>
<path d="M89.4099 80.65H91.1027V84.7501H91.8172V80.65H93.5054V80.0266H89.4099V80.65Z" fill="#545555"/>
<path d="M96.5226 79.9265C95.0982 79.9265 94.0562 81.0596 94.0562 82.3929C94.0562 83.7444 95.0891 84.8593 96.5044 84.8593C97.9287 84.8593 98.9799 83.7262 98.9799 82.3929C98.9799 81.0414 97.9378 79.9265 96.5226 79.9265ZM96.5226 84.2313C95.526 84.2313 94.7751 83.4077 94.7751 82.3929C94.7751 81.3781 95.4805 80.5454 96.5044 80.5454C97.5009 80.5454 98.2609 81.3781 98.2609 82.3929C98.2609 83.4077 97.5464 84.2313 96.5226 84.2313Z" fill="#545555"/>
<path d="M101.119 78.8752V78.3565H100.295V78.8752L100.509 82.9435H100.9L101.119 78.8752Z" fill="#545555"/>
<path d="M101.128 83.7945H100.286V84.7546H101.128V83.7945Z" fill="#545555"/>
<path d="M79.4032 18.8985L60.4955 0.0818787H49.8562L0.127441 49.8471H17.1876L55.2532 11.7632L79.4077 35.7994L97.4826 17.8565V49.8516H109.523V0.0818787H97.4826L79.4032 18.8985Z" fill="#1C964D"/>
<path d="M29.9974 12.9924L17.0419 0.0323486H0L21.4742 21.5111L29.9974 12.9924Z" fill="#604337"/>
<path d="M66.9027 49.8289L45.5559 28.5276L37.019 37.06L49.8016 49.8289H66.9027Z" fill="#604337"/>
<path d="M112.345 1.03753H114.374V6.38902H115.507V1.03753H117.532V0H112.345V1.03753Z" fill="#604337"/>
<path d="M123.808 0L121.86 3.02159L119.917 0H118.72V6.38902H119.826V1.82479L121.824 4.81907H121.86L123.881 1.80658V6.38902H125V0H123.808Z" fill="#604337"/>
<path d="M6.53009 65.0233L10.1159 59.781H7.43565L5.16491 63.2622L2.91237 59.781H0.15472L3.74058 65.0552L0 70.5113H2.68029L5.10576 66.8344L7.51302 70.5113H10.2707L6.53009 65.0233Z" fill="#604337"/>
<path d="M15.149 65.5011C13.2014 65.5011 11.8362 66.3293 11.8362 68.1223C11.8362 69.7787 13.1103 70.6661 14.6575 70.6661C15.7906 70.6661 16.5733 70.252 17.1422 69.624V70.5113H19.3947V65.7423C19.3947 64.6365 19.1171 63.7355 18.5073 63.1212C17.9249 62.5387 17.0056 62.202 15.7315 62.202C14.3345 62.202 13.4471 62.4614 12.5415 62.8618L13.124 64.6411C13.8748 64.3635 14.5028 64.1951 15.3947 64.1951C16.5597 64.1951 17.1558 64.7321 17.1558 65.6968V65.8333C16.5733 65.6377 15.9772 65.5011 15.149 65.5011ZM17.1877 67.2031V67.6172C17.1877 68.459 16.4505 69.0597 15.3629 69.0597C14.612 69.0597 14.0887 68.6911 14.0887 68.0631C14.0887 67.2941 14.703 66.8982 15.6996 66.8982C16.2684 66.8982 16.7872 67.021 17.1877 67.2031Z" fill="#604337"/>
<path d="M26.8304 62.1428C25.6199 62.1428 24.8372 62.7116 24.2684 63.4761V62.2975H21.9385V72.9686H24.2684V69.4419C24.819 70.1017 25.588 70.666 26.8304 70.666C28.778 70.666 30.5709 69.1643 30.5709 66.4203C30.5709 63.6445 28.7462 62.1428 26.8304 62.1428ZM26.2342 68.6911C25.1466 68.6911 24.2411 67.7855 24.2411 66.4249C24.2411 65.0278 25.1466 64.1268 26.2342 64.1268C27.3218 64.1268 28.241 65.0324 28.241 66.393C28.241 67.7991 27.3218 68.6911 26.2342 68.6911Z" fill="#604337"/>
<path d="M37.7653 65.6695L40.7823 62.2975H38.102L35.1578 65.6695V62.2975H32.8279V70.5113H35.1578V68.5363L36.2181 67.385L38.4069 70.5113H41.1691L37.7653 65.6695Z" fill="#604337"/>
<path d="M45.2328 59.3214H42.78V61.392H45.2328V59.3214Z" fill="#604337"/>
<path d="M45.169 62.2975H42.8391V70.5158H45.169V62.2975Z" fill="#604337"/>
<path d="M53.847 66.2064C54.5524 65.9015 55.1485 65.3464 55.1485 64.3498C55.1485 63.062 54.0609 62.2975 52.4045 62.2975H47.8994V70.5158H52.3908C54.293 70.5158 55.4579 69.674 55.4579 68.277C55.4579 67.1257 54.8436 66.5113 53.847 66.2064ZM50.202 64.0131H51.8721C52.5456 64.0131 52.8231 64.3634 52.8231 64.7639C52.8231 65.2417 52.5001 65.5921 51.8402 65.5921H50.202V64.0131ZM52.0404 68.6911H50.202V67.0665H51.9813C52.7776 67.0665 53.1007 67.4214 53.1007 67.8628C53.0962 68.3498 52.7594 68.6911 52.0404 68.6911Z" fill="#604337"/>
<path d="M73.7513 70.5113V59.781H71.2075L68.3861 64.3225L65.5648 59.781H63.021V70.5113H65.3327V63.5535L68.3224 68.0904H68.3861L71.4032 63.508V70.5113H73.7513Z" fill="#604337"/>
<path d="M80.2814 62.1428C77.8878 62.1428 76.2178 64.0768 76.2178 66.4203C76.2178 68.9641 78.0426 70.6979 80.509 70.6979C81.997 70.6979 83.0983 70.1154 83.8673 69.1643L82.534 67.9857C81.8924 68.5818 81.3235 68.8276 80.5408 68.8276C79.4987 68.8276 78.7615 68.2769 78.534 67.2167H84.2541C84.2678 67.0028 84.286 66.7844 84.286 66.6023C84.286 64.277 83.0255 62.1428 80.2814 62.1428ZM78.5067 65.7605C78.6887 64.7002 79.3213 64.0131 80.286 64.0131C81.2689 64.0131 81.8787 64.7184 82.0198 65.7605H78.5067Z" fill="#604337"/>
<path d="M91.0299 62.6024C89.3417 62.6024 88.3451 63.4443 88.0402 63.9812C88.1039 63.1985 88.5135 62.3567 90.0334 62.0518L94.5384 61.1599L94.1698 59.3214L89.7694 60.136C86.6887 60.7048 86.3201 63.3259 86.3201 65.7924C86.3201 68.9505 87.84 70.6979 90.6113 70.6979C93.1095 70.6979 94.9207 68.814 94.9207 66.5432C94.9252 64.2907 93.1186 62.6024 91.0299 62.6024ZM90.6477 68.6911C89.4964 68.6911 88.6409 67.74 88.6409 66.5751C88.6409 65.3783 89.4372 64.4272 90.6204 64.4272C91.7717 64.4272 92.6272 65.3965 92.6272 66.5751C92.6272 67.7537 91.8445 68.6911 90.6477 68.6911Z" fill="#604337"/>
<path d="M96.4633 68.6274C96.3541 68.6274 96.0629 68.5955 95.9719 68.5819L95.8171 70.4658C96.122 70.5432 96.6908 70.6023 96.9957 70.6023C99.0481 70.6023 99.9855 69.7286 99.9855 64.2861H102.07V70.5113H104.4V62.293H97.7966C97.7966 68.1223 97.337 68.6274 96.4633 68.6274Z" fill="#604337"/>
<path d="M109.464 62.2975H107.135V70.5158H109.464V62.2975Z" fill="#604337"/>
<path d="M109.524 59.3214H107.071V61.392H109.524V59.3214Z" fill="#604337"/>
</svg>

<svg width="125" height="87" fill="none" xmlns="http://www.w3.org/2000/svg"><path d="M12.6 80.027h-.868l-2.585 2.725v-2.725H8.44v4.723h.706v-1.142l.996-1.024 1.68 2.166h.832l-2.03-2.676 1.976-2.047Zm3.045 3.94-1.72-3.94h-.778l2.148 4.705c-.283.669-.551.887-.97.887-.3 0-.51-.054-.741-.173l-.237.56c.319.155.614.237 1.006.237.714 0 1.17-.355 1.57-1.334l1.984-4.882h-.747l-1.515 3.94Zm3.381.783h.705v-4.1h2.685v4.1h.705v-4.723h-4.095v4.723Zm7.686-.783-1.72-3.94h-.778l2.148 4.705c-.283.669-.551.887-.97.887-.3 0-.51-.054-.741-.173l-.237.56a2.15 2.15 0 0 0 1.005.237c.715 0 1.17-.355 1.57-1.334l1.985-4.882h-.751l-1.511 3.94Zm4.086-.2v-3.74h-.705v4.723h.678l2.812-3.736v3.736h.706v-4.723H33.6l-2.803 3.74Zm2.658-5.533-.482-.1c-.11.39-.355.641-.806.641-.446 0-.696-.246-.805-.642l-.483.1c.11.651.606 1.115 1.288 1.115.687 0 1.179-.464 1.288-1.114Zm7.577 4.277-1.761-2.484h-.67v4.723h.688v-3.6l1.724 2.394 1.748-2.393v3.6h.714v-4.724h-.678l-1.765 2.484Zm5.988-2.584c-1.306 0-2.266 1.096-2.266 2.466 0 1.47 1.06 2.466 2.357 2.466.897 0 1.47-.355 1.948-.887l-.437-.391c-.382.4-.842.668-1.488.668-.833 0-1.561-.577-1.666-1.57h3.745c.01-.109.01-.181.01-.245 0-1.393-.806-2.507-2.203-2.507Zm-1.556 2.184c.1-.915.723-1.588 1.533-1.588.933 0 1.425.732 1.507 1.588h-3.04Zm7.367-2.03c-1.005 0-1.629.464-1.957 1.024.073-.906.4-1.433 1.38-1.684l2.557-.632-.137-.596-2.63.623c-1.647.391-1.766 1.857-1.766 3.381 0 1.647.96 2.658 2.394 2.658 1.397 0 2.42-1.115 2.42-2.43.005-1.293-1.028-2.344-2.26-2.344Zm-.136 4.15c-.951 0-1.693-.796-1.693-1.783 0-.988.696-1.784 1.675-1.784.95 0 1.692.796 1.692 1.784 0 .987-.696 1.783-1.674 1.783Zm4.341-3.813c0 3.545-.473 3.795-1.042 3.795a1.56 1.56 0 0 1-.337-.064l-.082.606c.146.036.41.072.564.072.897 0 1.561-.382 1.561-4.068v-.109h1.975v4.105h.706V80.03h-3.345v.387Zm5.688-.391h-.705v4.723h.705v-4.723Zm.055-1.811h-.806v.778h.806v-.778Zm4.323 6.534h.7v-4.1h2.69v4.1h.701v-4.723h-4.091v4.723Zm8.177-4.823c-.869 0-1.424.482-1.81 1.05v-.95h-.706v6.188h.705V83.85c.364.528.933 1.006 1.811 1.006 1.143 0 2.257-.915 2.257-2.458 0-1.574-1.124-2.47-2.257-2.47Zm-.127 4.295c-.878 0-1.711-.732-1.711-1.83 0-1.096.833-1.837 1.711-1.837.896 0 1.665.714 1.665 1.829 0 1.16-.75 1.838-1.665 1.838Zm5.857-4.295c-1.425 0-2.467 1.133-2.467 2.466 0 1.351 1.033 2.466 2.448 2.466a2.453 2.453 0 0 0 2.476-2.466c.005-1.352-1.038-2.466-2.457-2.466Zm0 4.304c-.997 0-1.748-.823-1.748-1.838 0-1.015.706-1.848 1.73-1.848.996 0 1.756.833 1.756 1.848 0 1.015-.715 1.838-1.738 1.838Zm5.897 0c-.987 0-1.738-.814-1.738-1.838 0-1.033.733-1.848 1.693-1.848.641 0 1.078.3 1.451.697l.446-.474c-.437-.464-.996-.841-1.893-.841-1.379 0-2.42 1.133-2.42 2.466 0 1.342 1.041 2.466 2.42 2.466.888 0 1.452-.382 1.93-.914l-.465-.428c-.373.405-.819.714-1.424.714Zm2.503-3.581h1.693v4.1h.714v-4.1h1.688v-.623H89.41v.623Zm7.113-.723c-1.425 0-2.467 1.133-2.467 2.466 0 1.351 1.033 2.466 2.448 2.466a2.453 2.453 0 0 0 2.476-2.466c0-1.352-1.042-2.466-2.457-2.466Zm0 4.304c-.997 0-1.748-.823-1.748-1.838 0-1.015.706-1.848 1.73-1.848.996 0 1.756.833 1.756 1.848 0 1.015-.715 1.838-1.738 1.838Zm4.596-5.356v-.519h-.824v.52l.214 4.067h.391l.219-4.068Zm.009 4.919h-.842v.96h.842v-.96Z" fill="#545555"/><path d="M79.403 18.898 60.495.082H49.856L.127 49.847h17.06l38.066-38.084L79.408 35.8l18.075-17.942v31.995h12.04V.082h-12.04l-18.08 18.816Z" fill="#1C964D"/><path d="M29.997 12.992 17.042.032H0l21.474 21.48 8.523-8.52Zm36.906 36.837L45.556 28.528l-8.537 8.532 12.783 12.769h17.1Zm45.442-48.791h2.029v5.351h1.133V1.038h2.025V0h-5.187v1.038ZM123.808 0l-1.948 3.022L119.917 0h-1.197v6.389h1.106V1.825l1.998 2.994h.036l2.021-3.012v4.582H125V0h-1.192ZM6.53 65.023l3.586-5.242h-2.68l-2.271 3.481-2.253-3.481H.155l3.586 5.274L0 70.511h2.68l2.426-3.677 2.407 3.677h2.758l-3.74-5.488Zm8.619.478c-1.948 0-3.313.828-3.313 2.621 0 1.657 1.274 2.544 2.822 2.544 1.133 0 1.915-.414 2.484-1.042v.887h2.253v-4.769c0-1.106-.278-2.007-.888-2.62-.582-.583-1.501-.92-2.776-.92-1.396 0-2.284.26-3.19.66l.583 1.78c.75-.278 1.379-.447 2.27-.447 1.166 0 1.762.537 1.762 1.502v.136a5.925 5.925 0 0 0-2.007-.332Zm2.039 1.702v.414c0 .842-.737 1.443-1.825 1.443-.751 0-1.274-.369-1.274-.997 0-.769.614-1.165 1.61-1.165a3.65 3.65 0 0 1 1.489.305Zm9.642-5.06c-1.21 0-1.993.569-2.562 1.333v-1.178h-2.33v10.67h2.33v-3.526c.551.66 1.32 1.224 2.562 1.224 1.948 0 3.74-1.502 3.74-4.246 0-2.776-1.824-4.277-3.74-4.277Zm-.596 6.548c-1.087 0-1.993-.906-1.993-2.266 0-1.397.906-2.298 1.993-2.298 1.088 0 2.007.905 2.007 2.266 0 1.406-.92 2.298-2.007 2.298Zm11.531-3.021 3.017-3.373h-2.68l-2.944 3.373v-3.373h-2.33v8.214h2.33v-1.975l1.06-1.151 2.189 3.126h2.762l-3.404-4.841Zm7.468-6.349H42.78v2.071h2.453v-2.07Zm-.064 2.976h-2.33v8.219h2.33v-8.219Zm8.678 3.909c.705-.305 1.301-.86 1.301-1.856 0-1.288-1.087-2.052-2.744-2.052H47.9v8.218h4.492c1.902 0 3.067-.842 3.067-2.239 0-1.151-.614-1.766-1.611-2.07Zm-3.645-2.193h1.67c.674 0 .951.35.951.75 0 .479-.323.83-.983.83h-1.638v-1.58Zm1.838 4.678h-1.838v-1.624h1.78c.796 0 1.119.354 1.119.796-.005.487-.342.828-1.06.828Zm21.711 1.82v-10.73h-2.544l-2.82 4.542-2.822-4.542H63.02v10.73h2.312v-6.957l2.99 4.536h.063l3.017-4.582v7.003h2.348Zm6.53-8.368c-2.393 0-4.063 1.934-4.063 4.277 0 2.544 1.825 4.278 4.291 4.278 1.488 0 2.59-.583 3.358-1.534l-1.333-1.178c-.642.596-1.21.842-1.993.842-1.042 0-1.78-.551-2.007-1.611h5.72c.014-.214.032-.433.032-.615 0-2.325-1.26-4.46-4.005-4.46Zm-1.774 3.617c.182-1.06.814-1.747 1.779-1.747.983 0 1.593.705 1.734 1.747h-3.513Zm12.523-3.158c-1.688 0-2.685.842-2.99 1.38.064-.783.473-1.625 1.993-1.93l4.505-.892-.368-1.839-4.4.815c-3.081.569-3.45 3.19-3.45 5.656 0 3.159 1.52 4.906 4.291 4.906 2.498 0 4.31-1.884 4.31-4.155a3.903 3.903 0 0 0-3.891-3.94Zm-.382 6.09c-1.152 0-2.007-.952-2.007-2.117 0-1.197.796-2.148 1.98-2.148 1.15 0 2.006.97 2.006 2.148 0 1.179-.782 2.116-1.98 2.116Zm5.815-.065a5.2 5.2 0 0 1-.491-.045l-.155 1.884c.305.077.874.136 1.179.136 2.052 0 2.99-.873 2.99-6.316h2.084v6.225h2.33v-8.218h-6.603c0 5.83-.46 6.334-1.334 6.334Zm13.001-6.33h-2.329v8.219h2.329v-8.219Zm.06-2.976h-2.453v2.071h2.453v-2.07Z" fill="#604337"/></svg>
